flags/ad.svg

<svg width="512" height="512" viewBox="0 0 512 512" fill="none" xmlns="http://www.w3.org/2000/svg">
<path d="M384 512L128 512L128 -1.11901e-05L384 1.11901e-05L384 512Z" fill="var(--flag-palette-yellow, #ffda44)"/>
<path d="M144 512L-2.23802e-05 512L3.05176e-05 -6.29444e-06L144 6.29444e-06L144 512Z" fill="var(--flag-palette-blue, #0052b4)"/>
<path d="M512 512L368 512L368 -6.29444e-06L512 6.29444e-06L512 512Z" fill="var(--flag-palette-bright-red, #d80027)"/>
<path d="M256 345.043C256 304.192 256 256 256 256H322.783V289.391C322.783 295.192 311.653 316.448 284.18 333.913C273.775 340.529 263.004 342.657 256 345.043Z" fill="var(--flag-palette-bright-red, #d80027)"/>
<path d="M189.217 189.217H256V256H189.217V189.217Z" fill="var(--flag-palette-bright-red, #d80027)"/>
<path d="M289.391 166.957C289.391 154.662 279.424 144.696 267.13 144.696C263.07 144.696 259.276 145.8 256 147.698C252.723 145.8 248.93 144.696 244.87 144.696C232.576 144.696 222.609 154.662 222.609 166.957H166.957V278.26C166.957 319.696 199.863 343.659 225.668 356.081C223.737 359.379 222.609 363.206 222.609 367.305C222.609 379.6 232.576 389.566 244.87 389.566C248.93 389.566 252.724 388.462 256 386.564C259.277 388.462 263.07 389.566 267.13 389.566C279.424 389.566 289.391 379.6 289.391 367.305C289.391 363.206 288.263 359.379 286.331 356.081C312.136 343.659 345.043 319.697 345.043 278.26V166.957H289.391ZM311.652 278.26C311.652 284.061 311.652 301.712 284.18 319.178C273.774 325.794 263.004 330.084 256 332.469C248.996 330.084 238.226 325.794 227.82 319.178C200.348 301.712 200.348 284.061 200.348 278.26V200.348H311.652V278.26Z" fill="var(--flag-palette-gold, #ff9811)"/>
</svg>

<svg xmlns="http://www.w3.org/2000/svg" width="512" height="512" fill="none"><path fill="var(--flag-palette-yellow, #ffda44)" d="M384 512H128V0h256z"/><path fill="var(--flag-palette-blue, #0052b4)" d="M144 512H0V0h144z"/><path fill="var(--flag-palette-bright-red, #d80027)" d="M512 512H368V0h144zM256 345v-89h66.8v33.4c0 5.8-11.1 27-38.6 44.5-10.4 6.6-21.2 8.8-28.2 11.1m-66.8-155.8H256V256h-66.8z"/><path fill="var(--flag-palette-gold, #ff9811)" d="M289.4 167a22.3 22.3 0 0 0-33.4-19.3q-5-3-11.1-3c-12.3 0-22.3 10-22.3 22.3H167v111.3c0 41.4 32.9 65.4 58.7 77.8q-3 5-3 11.2a22.3 22.3 0 0 0 33.3 19.3q5 3 11.1 3a22.3 22.3 0 0 0 19.2-33.5c25.8-12.4 58.7-36.4 58.7-77.8V167zm22.3 111.3c0 5.8 0 23.4-27.5 40.9a137 137 0 0 1-28.2 13.3c-7-2.4-17.8-6.7-28.2-13.3-27.5-17.5-27.5-35.1-27.5-41v-77.9h111.4z"/></svg>
